source/work/images/artifact_conceptualmodel.svg

<svg xmlns="http://www.w3.org/2000/svg" width="64" height="64" viewBox="0 0 64 64"><style type="text/css">.frame{fill:#FFFFFF;} .content{opacity:0.5;fill:#FFFFFF;}</style><path class="content" d="M57 9h-6c-1.105 0-2 .895-2 2v4c0 1.105.895 2 2 2h6c1.105 0 2-.895 2-2v-4c0-1.105-.895-2-2-2zm1 2v4c0 .115-.03.222-.066.326l-3.101-2.326 3.101-2.326c.036.104.066.211.066.326zm-1-1l.131.027-3.131 2.348-3.131-2.349.131-.026h6zm-6.934 5.326c-.036-.104-.066-.211-.066-.326v-4c0-.115.03-.222.066-.326l3.101 2.326-3.101 2.326zm.934.674l-.131-.027 3.131-2.348 3.131 2.349-.131.026h-6zm-2-9.5c0-.276.224-.5.5-.5h8c.276 0 .5.224.5.5s-.224.5-.5.5h-8c-.276 0-.5-.224-.5-.5zm10 14c0 .276-.224.5-.5.5h-9c-.276 0-.5-.224-.5-.5s.224-.5.5-.5h9c.276 0 .5.224.5.5zm0 3c0 .276-.224.5-.5.5h-9c-.276 0-.5-.224-.5-.5s.224-.5.5-.5h9c.276 0 .5.224.5.5zm-10 3c0-.276.224-.5.5-.5h6c.276 0 .5.224.5.5s-.224.5-.5.5h-6c-.276 0-.5-.224-.5-.5zm-14 12.5h-6c-1.105 0-2 .895-2 2v4c0 1.105.895 2 2 2h6c1.105 0 2-.895 2-2v-4c0-1.105-.895-2-2-2zm1 2v4c0 .115-.03.222-.066.326l-3.101-2.326 3.101-2.326c.036.104.066.211.066.326zm-1-1l.131.027-3.131 2.348-3.131-2.349.131-.026h6zm-6.934 5.326c-.036-.104-.066-.211-.066-.326v-4c0-.115.03-.222.066-.326l3.101 2.326-3.101 2.326zm.934.674l-.131-.027 3.131-2.348 3.131 2.349-.131.026h-6zm-2-9.5c0-.276.224-.5.5-.5h8c.276 0 .5.224.5.5s-.224.5-.5.5h-8c-.276 0-.5-.224-.5-.5zm10 14c0 .276-.224.5-.5.5h-9c-.276 0-.5-.224-.5-.5s.224-.5.5-.5h9c.276 0 .5.224.5.5zm0 3c0 .276-.224.5-.5.5h-9c-.276 0-.5-.224-.5-.5s.224-.5.5-.5h9c.276 0 .5.224.5.5zm-3 3c0 .276-.224.5-.5.5h-6c-.276 0-.5-.224-.5-.5s.224-.5.5-.5h6c.276 0 .5.224.5.5zm23-17.5h-6c-1.105 0-2 .895-2 2v4c0 1.105.895 2 2 2h6c1.105 0 2-.895 2-2v-4c0-1.105-.895-2-2-2zm1 2v4c0 .115-.03.222-.066.326l-3.101-2.326 3.101-2.326c.036.104.066.211.066.326zm-1-1l.131.027-3.131 2.348-3.131-2.349.131-.026h6zm-6.934 5.326c-.036-.104-.066-.211-.066-.326v-4c0-.115.03-.222.066-.326l3.101 2.326-3.101 2.326zm.934.674l-.131-.027 3.131-2.348 3.131 2.349-.131.026h-6zm-2-9.5c0-.276.224-.5.5-.5h8c.276 0 .5.224.5.5s-.224.5-.5.5h-8c-.276 0-.5-.224-.5-.5zm10 14c0 .276-.224.5-.5.5h-9c-.276 0-.5-.224-.5-.5s.224-.5.5-.5h9c.276 0 .5.224.5.5zm0 3c0 .276-.224.5-.5.5h-9c-.276 0-.5-.224-.5-.5s.224-.5.5-.5h9c.276 0 .5.224.5.5zm-3 3c0 .276-.224.5-.5.5h-6c-.276 0-.5-.224-.5-.5s.224-.5.5-.5h6c.276 0 .5.224.5.5zm-43-47.5h-6c-1.105 0-2 .895-2 2v4c0 1.105.895 2 2 2h6c1.105 0 2-.895 2-2v-4c0-1.105-.895-2-2-2zm1 2v4c0 .115-.03.222-.066.326l-3.101-2.326 3.101-2.326c.036.104.066.211.066.326zm-1-1l.131.027-3.131 2.348-3.131-2.349.131-.026h6zm-6.934 5.326c-.036-.104-.066-.211-.066-.326v-4c0-.115.03-.222.066-.326l3.101 2.326-3.101 2.326zm.934.674l-.131-.027 3.131-2.348 3.131 2.349-.131.026h-6zm-2-9.5c0-.276.224-.5.5-.5h8c.276 0 .5.224.5.5s-.224.5-.5.5h-8c-.276 0-.5-.224-.5-.5zm10 14c0 .276-.224.5-.5.5h-9c-.276 0-.5-.224-.5-.5s.224-.5.5-.5h9c.276 0 .5.224.5.5zm0 3c0 .276-.224.5-.5.5h-9c-.276 0-.5-.224-.5-.5s.224-.5.5-.5h9c.276 0 .5.224.5.5zm-3 3c0 .276-.224.5-.5.5h-6c-.276 0-.5-.224-.5-.5s.224-.5.5-.5h6c.276 0 .5.224.5.5z"/><path class="frame" d="M48 31h12c1.657 0 3-1.343 3-3v-22c0-1.657-1.343-3-3-3h-12c-1.657 0-3 1.343-3 3v10.5h-26v-10.5c0-1.657-1.343-3-3-3h-12c-1.657 0-3 1.343-3 3v22c0 1.657 1.343 3 3 3h12c1.657 0 3-1.343 3-3v-10.5h12.5v15.5h-5.5c-1.657 0-3 1.343-3 3v22c0 1.657 1.343 3 3 3h12c1.657 0 3-1.343 3-3v-10.5h4v10.5c0 1.657 1.343 3 3 3h12c1.657 0 3-1.343 3-3v-22c0-1.657-1.343-3-3-3h-12c-1.657 0-3 1.343-3 3v10.5h-4v-10.5c0-1.657-1.343-3-3-3h-5.5v-15.5h12.5v10.5c0 1.657 1.343 3 3 3zm-2-25c0-1.103.897-2 2-2h12c1.103 0 2 .897 2 2v22c0 1.103-.897 2-2 2h-12c-1.103 0-2-.897-2-2v-22zm-28 22c0 1.103-.897 2-2 2h-12c-1.103 0-2-.897-2-2v-22c0-1.103.897-2 2-2h12c1.103 0 2 .897 2 2v22zm28 8c0-1.103.897-2 2-2h12c1.103 0 2 .897 2 2v22c0 1.103-.897 2-2 2h-12c-1.103 0-2-.897-2-2v-22zm-8-2c1.103 0 2 .897 2 2v22c0 1.103-.897 2-2 2h-12c-1.103 0-2-.897-2-2v-22c0-1.103.897-2 2-2h12z"/></svg>

<?xml version="1.0" encoding="utf-8"?>
<!-- Generator: Adobe Illustrator 22.0.1, SVG Export Plug-In . SVG Version: 6.00 Build 0)  -->
<svg version="1.1" id="icons" xmlns="http://www.w3.org/2000/svg" xmlns:xlink="http://www.w3.org/1999/xlink" x="0px" y="0px"
	 width="64px" height="64px" viewBox="0 0 64 64" style="enable-background:new 0 0 64 64;" xml:space="preserve">
<style type="text/css">
	.frame{fill:#FFFFFF;}
	.content{opacity:0.5;fill:#FFFFFF;}
</style>
<path class="content" d="M57,9h-6c-1.105,0-2,0.895-2,2v4c0,1.105,0.895,2,2,2h6c1.105,0,2-0.895,2-2v-4C59,9.895,58.105,9,57,9z
	 M58,11v4c0,0.115-0.03,0.222-0.066,0.326L54.833,13l3.101-2.326C57.97,10.778,58,10.885,58,11z M57,10
	c0.047,0,0.087,0.02,0.131,0.027L54,12.375l-3.131-2.349C50.913,10.02,50.953,10,51,10H57z M50.066,15.326
	C50.03,15.222,50,15.115,50,15v-4c0-0.115,0.03-0.222,0.066-0.326L53.167,13L50.066,15.326z M51,16c-0.047,0-0.087-0.02-0.131-0.027
	L54,13.625l3.131,2.349C57.087,15.98,57.047,16,57,16H51z M49,6.5C49,6.224,49.224,6,49.5,6h8C57.776,6,58,6.224,58,6.5
	S57.776,7,57.5,7h-8C49.224,7,49,6.776,49,6.5z M59,20.5c0,0.276-0.224,0.5-0.5,0.5h-9c-0.276,0-0.5-0.224-0.5-0.5
	s0.224-0.5,0.5-0.5h9C58.776,20,59,20.224,59,20.5z M59,23.5c0,0.276-0.224,0.5-0.5,0.5h-9c-0.276,0-0.5-0.224-0.5-0.5
	s0.224-0.5,0.5-0.5h9C58.776,23,59,23.224,59,23.5z M49,26.5c0-0.276,0.224-0.5,0.5-0.5h6c0.276,0,0.5,0.224,0.5,0.5
	S55.776,27,55.5,27h-6C49.224,27,49,26.776,49,26.5z M35,39h-6c-1.105,0-2,0.895-2,2v4c0,1.105,0.895,2,2,2h6c1.105,0,2-0.895,2-2
	v-4C37,39.895,36.105,39,35,39z M36,41v4c0,0.115-0.03,0.222-0.066,0.326L32.833,43l3.101-2.326C35.97,40.778,36,40.885,36,41z
	 M35,40c0.047,0,0.087,0.02,0.131,0.027L32,42.375l-3.131-2.349C28.913,40.02,28.953,40,29,40H35z M28.066,45.326
	C28.03,45.222,28,45.115,28,45v-4c0-0.115,0.03-0.222,0.066-0.326L31.167,43L28.066,45.326z M29,46c-0.047,0-0.087-0.02-0.131-0.027
	L32,43.625l3.131,2.349C35.087,45.98,35.047,46,35,46H29z M27,36.5c0-0.276,0.224-0.5,0.5-0.5h8c0.276,0,0.5,0.224,0.5,0.5
	S35.776,37,35.5,37h-8C27.224,37,27,36.776,27,36.5z M37,50.5c0,0.276-0.224,0.5-0.5,0.5h-9c-0.276,0-0.5-0.224-0.5-0.5
	s0.224-0.5,0.5-0.5h9C36.776,50,37,50.224,37,50.5z M37,53.5c0,0.276-0.224,0.5-0.5,0.5h-9c-0.276,0-0.5-0.224-0.5-0.5
	s0.224-0.5,0.5-0.5h9C36.776,53,37,53.224,37,53.5z M34,56.5c0,0.276-0.224,0.5-0.5,0.5h-6c-0.276,0-0.5-0.224-0.5-0.5
	s0.224-0.5,0.5-0.5h6C33.776,56,34,56.224,34,56.5z M57,39h-6c-1.105,0-2,0.895-2,2v4c0,1.105,0.895,2,2,2h6c1.105,0,2-0.895,2-2v-4
	C59,39.895,58.105,39,57,39z M58,41v4c0,0.115-0.03,0.222-0.066,0.326L54.833,43l3.101-2.326C57.97,40.778,58,40.885,58,41z M57,40
	c0.047,0,0.087,0.02,0.131,0.027L54,42.375l-3.131-2.349C50.913,40.02,50.953,40,51,40H57z M50.066,45.326
	C50.03,45.222,50,45.115,50,45v-4c0-0.115,0.03-0.222,0.066-0.326L53.167,43L50.066,45.326z M51,46c-0.047,0-0.087-0.02-0.131-0.027
	L54,43.625l3.131,2.349C57.087,45.98,57.047,46,57,46H51z M49,36.5c0-0.276,0.224-0.5,0.5-0.5h8c0.276,0,0.5,0.224,0.5,0.5
	S57.776,37,57.5,37h-8C49.224,37,49,36.776,49,36.5z M59,50.5c0,0.276-0.224,0.5-0.5,0.5h-9c-0.276,0-0.5-0.224-0.5-0.5
	s0.224-0.5,0.5-0.5h9C58.776,50,59,50.224,59,50.5z M59,53.5c0,0.276-0.224,0.5-0.5,0.5h-9c-0.276,0-0.5-0.224-0.5-0.5
	s0.224-0.5,0.5-0.5h9C58.776,53,59,53.224,59,53.5z M56,56.5c0,0.276-0.224,0.5-0.5,0.5h-6c-0.276,0-0.5-0.224-0.5-0.5
	s0.224-0.5,0.5-0.5h6C55.776,56,56,56.224,56,56.5z M13,9H7c-1.105,0-2,0.895-2,2v4c0,1.105,0.895,2,2,2h6c1.105,0,2-0.895,2-2v-4
	C15,9.895,14.105,9,13,9z M14,11v4c0,0.115-0.03,0.222-0.066,0.326L10.833,13l3.101-2.326C13.97,10.778,14,10.885,14,11z M13,10
	c0.047,0,0.087,0.02,0.131,0.027L10,12.375l-3.131-2.349C6.913,10.02,6.953,10,7,10H13z M6.066,15.326C6.03,15.222,6,15.115,6,15v-4
	c0-0.115,0.03-0.222,0.066-0.326L9.167,13L6.066,15.326z M7,16c-0.047,0-0.087-0.02-0.131-0.027L10,13.625l3.131,2.349
	C13.087,15.98,13.047,16,13,16H7z M5,6.5C5,6.224,5.224,6,5.5,6h8C13.776,6,14,6.224,14,6.5S13.776,7,13.5,7h-8
	C5.224,7,5,6.776,5,6.5z M15,20.5c0,0.276-0.224,0.5-0.5,0.5h-9C5.224,21,5,20.776,5,20.5S5.224,20,5.5,20h9
	C14.776,20,15,20.224,15,20.5z M15,23.5c0,0.276-0.224,0.5-0.5,0.5h-9C5.224,24,5,23.776,5,23.5S5.224,23,5.5,23h9
	C14.776,23,15,23.224,15,23.5z M12,26.5c0,0.276-0.224,0.5-0.5,0.5h-6C5.224,27,5,26.776,5,26.5S5.224,26,5.5,26h6
	C11.776,26,12,26.224,12,26.5z"/>
<path class="frame" d="M48,31h12c1.657,0,3-1.343,3-3V6c0-1.657-1.343-3-3-3H48c-1.657,0-3,1.343-3,3v10.5H19V6c0-1.657-1.343-3-3-3
	H4C2.343,3,1,4.343,1,6v22c0,1.657,1.343,3,3,3h12c1.657,0,3-1.343,3-3V17.5h12.5V33H26c-1.657,0-3,1.343-3,3v22
	c0,1.657,1.343,3,3,3h12c1.657,0,3-1.343,3-3V47.5h4V58c0,1.657,1.343,3,3,3h12c1.657,0,3-1.343,3-3V36c0-1.657-1.343-3-3-3H48
	c-1.657,0-3,1.343-3,3v10.5h-4V36c0-1.657-1.343-3-3-3h-5.5V17.5H45V28C45,29.657,46.343,31,48,31z M46,6c0-1.103,0.897-2,2-2h12
	c1.103,0,2,0.897,2,2v22c0,1.103-0.897,2-2,2H48c-1.103,0-2-0.897-2-2V6z M18,28c0,1.103-0.897,2-2,2H4c-1.103,0-2-0.897-2-2V6
	c0-1.103,0.897-2,2-2h12c1.103,0,2,0.897,2,2V28z M46,36c0-1.103,0.897-2,2-2h12c1.103,0,2,0.897,2,2v22c0,1.103-0.897,2-2,2H48
	c-1.103,0-2-0.897-2-2V36z M38,34c1.103,0,2,0.897,2,2v22c0,1.103-0.897,2-2,2H26c-1.103,0-2-0.897-2-2V36c0-1.103,0.897-2,2-2H38z"
	/>
</svg>
